X:1
T:[ID 2-38a]
T:[ID 2-38a]
T:Bezeichnung standardisiert: Menuett Menuet
T:Urheber unbekannt Erstbeleg: 1767 (Datum in der schriftlichen Quelle) Datum in der hier transkribierten schriftlichen Quelle: 1799
C:Urheber unbekannt
C:Erstbeleg: 1767 (Datum in der schriftlichen Quelle)
C:Datum in der hier transkribierten schriftlichen Quelle: 1799
%%score 1 2
L:1/8
M:3/4
K:C
V:1 treble nm="Violino Primo"
V:2 treble nm="Violino Secondo"
V:1
 ce g2 g2 |{a} g4 a2 | gfedcB | c2 C4 | ce g2 g2 | Bd g2 g2 | cedcBA | G6 :: GB d2 d2 | Bd f4 | %10
 GB d2 d2 | ce g4 | agfedc | BA G2 f2 | (3edc G2 B2 | c6 :| %16
V:2
 !fermata!Ec e2 e2 |{f} e4 f2 | e2 cdef | g2 G4 | Gc e2 e2 | GB e2 e2 | G2 D2 C2 | B,6 :: %8
 B,G B2 B2 | GB d4 | DG B2 B2 | Ec e4 | fedcBA | GD B,2 c2 | E2 GFED |{D} E6 :| %16

